Catalina-light/apps/scalable/ms-outlook.svg

<?xml version="1.0" encoding="UTF-8" standalone="no"?>
<!-- Created with Inkscape (http://www.inkscape.org/) -->

<svg
   xmlns:dc="http://purl.org/dc/elements/1.1/"
   xmlns:cc="http://creativecommons.org/ns#"
   xmlns:rdf="http://www.w3.org/1999/02/22-rdf-syntax-ns#"
   xmlns:svg="http://www.w3.org/2000/svg"
   xmlns="http://www.w3.org/2000/svg"
   xmlns:xlink="http://www.w3.org/1999/xlink"
   xmlns:sodipodi="http://sodipodi.sourceforge.net/DTD/sodipodi-0.dtd"
   xmlns:inkscape="http://www.inkscape.org/namespaces/inkscape"
   version="1.1"
   id="svg2"
   width="128"
   height="128"
   viewBox="0 0 128 128"
   sodipodi:docname="ms-outlook.svg"
   inkscape:version="0.92.4 5da689c313, 2019-01-14">
  <metadata
     id="metadata8">
    <rdf:RDF>
      <cc:Work
         rdf:about="">
        <dc:format>image/svg+xml</dc:format>
        <dc:type
           rdf:resource="http://purl.org/dc/dcmitype/StillImage" />
        <dc:title></dc:title>
      </cc:Work>
    </rdf:RDF>
  </metadata>
  <defs
     id="defs6">
    <linearGradient
       inkscape:collect="always"
       id="linearGradient970">
      <stop
         style="stop-color:#000000;stop-opacity:0.22666667"
         offset="0"
         id="stop966" />
      <stop
         style="stop-color:#000000;stop-opacity:0.82666665"
         offset="1"
         id="stop968" />
    </linearGradient>
    <linearGradient
       inkscape:collect="always"
       id="linearGradient947">
      <stop
         style="stop-color:#000000;stop-opacity:1;"
         offset="0"
         id="stop943" />
      <stop
         style="stop-color:#000000;stop-opacity:0;"
         offset="1"
         id="stop945" />
    </linearGradient>
    <linearGradient
       inkscape:collect="always"
       id="linearGradient908">
      <stop
         style="stop-color:#000000;stop-opacity:1;"
         offset="0"
         id="stop904" />
      <stop
         style="stop-color:#000000;stop-opacity:0;"
         offset="1"
         id="stop906" />
    </linearGradient>
    <linearGradient
       inkscape:collect="always"
       id="linearGradient893">
      <stop
         style="stop-color:#0e88c8;stop-opacity:1"
         offset="0"
         id="stop889" />
      <stop
         style="stop-color:#1fa4f1;stop-opacity:1"
         offset="1"
         id="stop891" />
    </linearGradient>
    <linearGradient
       inkscape:collect="always"
       id="linearGradient915">
      <stop
         style="stop-color:#000000;stop-opacity:1;"
         offset="0"
         id="stop911" />
      <stop
         style="stop-color:#000000;stop-opacity:0;"
         offset="1"
         id="stop913" />
    </linearGradient>
    <linearGradient
       inkscape:collect="always"
       id="linearGradient905">
      <stop
         style="stop-color:#000000;stop-opacity:1;"
         offset="0"
         id="stop901" />
      <stop
         style="stop-color:#000000;stop-opacity:0;"
         offset="1"
         id="stop903" />
    </linearGradient>
    <linearGradient
       inkscape:collect="always"
       id="linearGradient883">
      <stop
         style="stop-color:#000000;stop-opacity:1;"
         offset="0"
         id="stop879" />
      <stop
         style="stop-color:#000000;stop-opacity:0;"
         offset="1"
         id="stop881" />
    </linearGradient>
    <linearGradient
       inkscape:collect="always"
       id="linearGradient871">
      <stop
         style="stop-color:#000000;stop-opacity:1;"
         offset="0"
         id="stop867" />
      <stop
         style="stop-color:#000000;stop-opacity:0;"
         offset="1"
         id="stop869" />
    </linearGradient>
    <linearGradient
       inkscape:collect="always"
       id="linearGradient861">
      <stop
         style="stop-color:#121212;stop-opacity:1;"
         offset="0"
         id="stop857" />
      <stop
         style="stop-color:#121212;stop-opacity:0;"
         offset="1"
         id="stop859" />
    </linearGradient>
    <linearGradient
       inkscape:collect="always"
       id="linearGradient833">
      <stop
         style="stop-color:#37ccfe;stop-opacity:1"
         offset="0"
         id="stop829" />
      <stop
         id="stop837"
         offset="0.22539063"
         style="stop-color:#30c9fd;stop-opacity:1" />
      <stop
         style="stop-color:#21a5ff;stop-opacity:1"
         offset="0.22539063"
         id="stop839" />
      <stop
         id="stop841"
         offset="0.46110788"
         style="stop-color:#1aa7f4;stop-opacity:1" />
      <stop
         style="stop-color:#1150b3;stop-opacity:1"
         offset="0.46110788"
         id="stop843" />
      <stop
         id="stop845"
         offset="0.75361681"
         style="stop-color:#3366b7;stop-opacity:1" />
      <stop
         style="stop-color:#005fb6;stop-opacity:1"
         offset="0.75361681"
         id="stop847" />
      <stop
         style="stop-color:#27468e;stop-opacity:1"
         offset="1"
         id="stop831" />
    </linearGradient>
    <linearGradient
       inkscape:collect="always"
       id="linearGradient825">
      <stop
         style="stop-color:#004095;stop-opacity:1"
         offset="0"
         id="stop821" />
      <stop
         style="stop-color:#0766d3;stop-opacity:1"
         offset="1"
         id="stop823" />
    </linearGradient>
    <linearGradient
       inkscape:collect="always"
       xlink:href="#linearGradient825"
       id="linearGradient827"
       x1="-302.76492"
       y1="200.37862"
       x2="-79.193878"
       y2="476.12396"
       gradientUnits="userSpaceOnUse"
       gradientTransform="matrix(0.19411184,0,0,0.19411184,85.327432,0.71470798)" />
    <linearGradient
       inkscape:collect="always"
       xlink:href="#linearGradient833"
       id="linearGradient835"
       x1="758.25604"
       y1="166.20975"
       x2="766.34314"
       y2="738.85797"
       gradientUnits="userSpaceOnUse"
       gradientTransform="matrix(0.19411184,0,0,0.19411184,-98.347101,-14.556719)" />
    <linearGradient
       inkscape:collect="always"
       xlink:href="#linearGradient861"
       id="linearGradient863"
       x1="340.44046"
       y1="329.36923"
       x2="379.53574"
       y2="329.36923"
       gradientUnits="userSpaceOnUse"
       gradientTransform="matrix(0.19411184,0,0,0.19411184,4.7064972,0.5803923)" />
    <linearGradient
       inkscape:collect="always"
       xlink:href="#linearGradient871"
       id="linearGradient873"
       x1="165.37656"
       y1="493.0159"
       x2="165.37656"
       y2="512.39056"
       gradientUnits="userSpaceOnUse"
       gradientTransform="matrix(0.19411184,0,0,0.19411184,4.7064972,0.5803923)" />
    <radialGradient
       inkscape:collect="always"
       xlink:href="#linearGradient883"
       id="radialGradient885"
       cx="339.38943"
       cy="482.85529"
       fx="339.38943"
       fy="482.85529"
       r="30.702576"
       gradientTransform="matrix(0.25511248,-0.01660813,0.01346453,0.20682475,-22.852213,-0.53657576)"
       gradientUnits="userSpaceOnUse" />
    <radialGradient
       inkscape:collect="always"
       xlink:href="#linearGradient905"
       id="radialGradient907"
       cx="354.03577"
       cy="185.93909"
       fx="354.03577"
       fy="185.93909"
       r="20.499084"
       gradientTransform="matrix(0.22310551,0.00602457,-0.00498793,0.1847159,-4.6339045,-1.1441322)"
       gradientUnits="userSpaceOnUse" />
    <radialGradient
       inkscape:collect="always"
       xlink:href="#linearGradient915"
       id="radialGradient917"
       cx="676.6192"
       cy="-100.37155"
       fx="676.6192"
       fy="-100.37155"
       r="14.94682"
       gradientTransform="matrix(0.00569972,0.21309767,-0.19814803,0.00529986,-13.302939,-46.86143)"
       gradientUnits="userSpaceOnUse" />
    <linearGradient
       inkscape:collect="always"
       xlink:href="#linearGradient893"
       id="linearGradient895"
       x1="13.481122"
       y1="102.41838"
       x2="89.939796"
       y2="124.94067"
       gradientUnits="userSpaceOnUse" />
    <linearGradient
       inkscape:collect="always"
       xlink:href="#linearGradient908"
       id="linearGradient910"
       x1="97.367523"
       y1="101.31614"
       x2="99.202339"
       y2="97.034904"
       gradientUnits="userSpaceOnUse" />
    <radialGradient
       inkscape:collect="always"
       xlink:href="#linearGradient947"
       id="radialGradient949"
       cx="40.688787"
       cy="64.730093"
       fx="40.688787"
       fy="64.730093"
       r="19.887403"
       gradientTransform="matrix(1,0,0,1.079948,0,-5.1750428)"
       gradientUnits="userSpaceOnUse" />
    <radialGradient
       inkscape:collect="always"
       xlink:href="#linearGradient970"
       id="radialGradient972"
       cx="40.738682"
       cy="64.340408"
       fx="40.738682"
       fy="64.340408"
       r="9.6008358"
       gradientTransform="matrix(1.3510653,0.005936,-0.00696643,1.5855966,-14.029286,-37.400389)"
       gradientUnits="userSpaceOnUse" />
  </defs>
  <sodipodi:namedview
     pagecolor="#ffffff"
     bordercolor="#666666"
     borderopacity="1"
     objecttolerance="10"
     gridtolerance="10"
     guidetolerance="10"
     inkscape:pageopacity="0"
     inkscape:pageshadow="2"
     inkscape:window-width="1871"
     inkscape:window-height="1017"
     id="namedview4"
     showgrid="false"
     inkscape:zoom="1.0219013"
     inkscape:cx="47.601936"
     inkscape:cy="64.796055"
     inkscape:window-x="49"
     inkscape:window-y="26"
     inkscape:window-maximized="1"
     inkscape:current-layer="svg2" />
  <rect
     style="opacity:1;fill:url(#linearGradient835);fill-opacity:1;stroke:none;stroke-width:0.15528947;stroke-linecap:round;stroke-linejoin:round;stroke-miterlimit:4;stroke-dasharray:none;stroke-dashoffset:0;stroke-opacity:1;paint-order:fill markers stroke"
     id="rect817"
     width="91.779961"
     height="115.00123"
     x="13.481122"
     y="16.167465"
     rx="9.1176825"
     ry="9.1176825"
     transform="rotate(-8.9578614)" />
  <g
     id="g918">
    <path
       style="opacity:1;fill:#2498e7;fill-opacity:1;stroke:none;stroke-width:0.15528947;stroke-linecap:round;stroke-linejoin:round;stroke-miterlimit:4;stroke-dasharray:none;stroke-dashoffset:0;stroke-opacity:1;paint-order:fill markers stroke"
       d="m 35.91822,124.80594 c 1.885758,1.36961 4.296255,2.01677 6.790694,1.62126 L 115.3462,114.91061 c 4.98887,-0.79099 8.36841,-5.44408 7.57742,-10.43297 l -7.57644,-47.786035 z"
       id="path897"
       inkscape:connector-curvature="0"
       sodipodi:nodetypes="cssscc" />
    <path
       sodipodi:nodetypes="cssscc"
       inkscape:connector-curvature="0"
       id="rect886"
       d="m 102.59644,128.50405 c -1.64802,1.64802 -3.92744,2.66464 -6.45304,2.66464 H 22.598804 c -5.051196,0 -9.117682,-4.06648 -9.117682,-9.11768 V 73.668079 Z"
       style="opacity:1;fill:url(#linearGradient895);fill-opacity:1;stroke:none;stroke-width:0.15528947;stroke-linecap:round;stroke-linejoin:round;stroke-miterlimit:4;stroke-dasharray:none;stroke-dashoffset:0;stroke-opacity:1;paint-order:fill markers stroke"
       transform="rotate(-8.9578614)" />
    <path
       id="path901"
       d="M 86.398438 81.515625 L 75.177734 91.140625 L 74.982422 91.548828 L 121.35352 110.96094 L 121.54102 110.9043 C 122.74003 109.07621 123.29473 106.81783 122.92383 104.47852 L 121.95117 98.347656 L 86.398438 81.515625 z "
       style="fill:url(#linearGradient910);stroke:none;stroke-width:1px;stroke-linecap:butt;stroke-linejoin:miter;stroke-opacity:1;fill-opacity:1;opacity:0.088" />
  </g>
  <path
     style="fill:url(#linearGradient863);fill-opacity:1;stroke:none;stroke-width:0.19411184px;stroke-linecap:butt;stroke-linejoin:miter;stroke-opacity:1"
     d="m 72.804753,35.435421 h 5.238341 l 0.335774,57.89024 -7.588841,0.268633 z"
     id="path855"
     inkscape:connector-curvature="0"
     sodipodi:nodetypes="ccccc" />
  <path
     style="opacity:0.65899999;fill:url(#linearGradient873);fill-opacity:1;stroke:none;stroke-width:0.19411184px;stroke-linecap:butt;stroke-linejoin:miter;stroke-opacity:1"
     d="m 10.817879,96.81788 v 3.22359 h 59.972148 v -4.835384 z"
     id="path865"
     inkscape:connector-curvature="0" />
  <path
     style="fill:url(#radialGradient885);fill-opacity:1;stroke:none;stroke-width:0.19411184px;stroke-linecap:butt;stroke-linejoin:miter;stroke-opacity:1"
     d="m 70.790027,100.04147 -0.0025,-1.999646 -0.832565,-4.905816 4.241731,0.338176 3.641247,-0.148224 3.988999,0.04749 -1.329666,7.31314 -10.589811,6.12594 z"
     id="path877"
     inkscape:connector-curvature="0"
     sodipodi:nodetypes="ccccccccc" />
  <path
     style="opacity:0.62999998;fill:url(#radialGradient907);fill-opacity:1;stroke:none;stroke-width:0.19411184px;stroke-linecap:butt;stroke-linejoin:miter;stroke-opacity:1"
     d="m 70.252745,31.3052 7.958236,-0.167895 -0.167887,4.298116 h -5.238341 z"
     id="path891"
     inkscape:connector-curvature="0" />
  <path
     style="opacity:0.594;fill:url(#radialGradient917);fill-opacity:1;stroke:none;stroke-width:0.19411184px;stroke-linecap:butt;stroke-linejoin:miter;stroke-opacity:1"
     d="M 10.817879,100.04147 V 94.774341 H 5.0151699 v 5.461109 z"
     id="path909"
     inkscape:connector-curvature="0" />
  <rect
     style="opacity:1;fill:url(#linearGradient827);fill-opacity:1;stroke:none;stroke-width:0.15528947;stroke-linecap:round;stroke-linejoin:round;stroke-miterlimit:4;stroke-dasharray:none;stroke-dashoffset:0;stroke-opacity:1;paint-order:fill markers stroke"
     id="rect819"
     width="68.382599"
     height="66.673035"
     x="6.4974871"
     y="31.393576"
     rx="4.7487969"
     ry="4.7487969" />
  <ellipse
     style="opacity:0.126;fill:url(#radialGradient972);fill-opacity:1;stroke:none;stroke-width:1.04477608;stroke-miterlimit:4;stroke-dasharray:none;stroke-opacity:1"
     id="path956"
     cx="40.563114"
     cy="64.859375"
     rx="10.030724"
     ry="12.109163" />
  <path
     style="font-style:normal;font-variant:normal;font-weight:normal;font-stretch:normal;font-size:40px;line-height:1.25;font-family:Cantarell;-inkscape-font-specification:Cantarell;letter-spacing:0px;word-spacing:0px;fill:#ffffff;fill-opacity:1;stroke:none;stroke-width:1.69632196;stroke-miterlimit:4;stroke-dasharray:none;stroke-opacity:1"
     d="m 41.059855,46.850793 c -5.020633,0 -9.294791,1.822207 -12.275141,5.035956 -2.980347,3.213749 -4.651632,7.783862 -4.651632,13.182941 0,5.222014 1.546455,9.615289 4.366704,12.705849 2.820247,3.090559 6.900258,4.833854 11.748355,4.833854 5.022626,0 9.311866,-1.84274 12.308273,-5.072399 2.996406,-3.229661 4.688077,-7.81516 4.688077,-13.216073 0,-5.223913 -1.568018,-9.606618 -4.40646,-12.679342 -2.838443,-3.072727 -6.932138,-4.790786 -11.778176,-4.790786 z m -0.745453,6.444036 c 2.92412,0 5.320328,1.167312 7.043713,3.210421 1.723386,2.04311 2.759836,4.997023 2.759836,8.56444 0,3.441505 -0.939875,6.222114 -2.524603,8.123792 -1.58473,1.901674 -3.802664,2.968562 -6.599754,2.968562 -2.927158,0 -5.305218,-1.151498 -7.01058,-3.183915 -1.705365,-2.032418 -2.726705,-4.98226 -2.726705,-8.587631 0,-3.47952 0.92813,-6.262819 2.494786,-8.153611 1.566656,-1.890792 3.763043,-2.942058 6.563307,-2.942058 z"
     id="text922"
     inkscape:connector-curvature="0" />
  <path
     style="font-style:normal;font-variant:normal;font-weight:normal;font-stretch:normal;font-size:40px;line-height:1.25;font-family:Cantarell;-inkscape-font-specification:Cantarell;letter-spacing:0px;word-spacing:0px;fill:url(#radialGradient949);fill-opacity:1;stroke:none;stroke-width:2.03769255;stroke-miterlimit:4;stroke-dasharray:none;stroke-opacity:1"
     d="M 41.134766 43.251953 C 35.103771 43.251953 29.968793 45.442246 26.388672 49.302734 C 22.808555 53.163224 20.800781 58.653072 20.800781 65.138672 C 20.800781 71.411573 22.659075 76.687881 26.046875 80.400391 C 29.434675 84.112899 34.33642 86.207031 40.160156 86.207031 C 46.193543 86.207031 51.345904 83.994836 54.945312 80.115234 C 58.544719 76.235631 60.576172 70.726083 60.576172 64.238281 C 60.576172 57.963098 58.692858 52.698896 55.283203 49.007812 C 51.873547 45.316724 46.956029 43.251953 41.134766 43.251953 z M 41.060547 46.851562 C 45.906585 46.851563 49.999448 48.567898 52.837891 51.640625 C 55.676333 54.713349 57.244141 59.0964 57.244141 64.320312 C 57.244141 69.721226 55.553047 74.307448 52.556641 77.537109 C 49.560234 80.766768 45.270673 82.609375 40.248047 82.609375 C 35.39995 82.609375 31.320247 80.86595 28.5 77.775391 C 25.679751 74.684831 24.132812 70.292327 24.132812 65.070312 C 24.132812 59.671233 25.804809 55.100468 28.785156 51.886719 C 31.765506 48.67297 36.039914 46.851562 41.060547 46.851562 z "
     id="path933" />
</svg>

<svg width="128" height="128" version="1.1" viewBox="0 0 128 128" xmlns="http://www.w3.org/2000/svg">
<defs>
<linearGradient id="linearGradient827" x1="-302.76" x2="-79.194" y1="200.38" y2="476.12" gradientTransform="matrix(.19411 0 0 .19411 85.327 .71471)" gradientUnits="userSpaceOnUse"/>
<linearGradient id="linearGradient835" x1="758.26" x2="766.34" y1="166.21" y2="738.86" gradientTransform="matrix(.19411 0 0 .19411 -98.347 -14.557)" gradientUnits="userSpaceOnUse"/>
<linearGradient id="linearGradient863" x1="340.44" x2="379.54" y1="329.37" y2="329.37" gradientTransform="matrix(.19411 0 0 .19411 4.7065 .58039)" gradientUnits="userSpaceOnUse"/>
<linearGradient id="linearGradient873" x1="165.38" x2="165.38" y1="493.02" y2="512.39" gradientTransform="matrix(.19411 0 0 .19411 4.7065 .58039)" gradientUnits="userSpaceOnUse"/>
<radialGradient id="radialGradient885" cx="339.39" cy="482.86" r="30.703" gradientTransform="matrix(.25511 -.016608 .013465 .20682 -22.852 -.53658)" gradientUnits="userSpaceOnUse"/>
<radialGradient id="radialGradient907" cx="354.04" cy="185.94" r="20.499" gradientTransform="matrix(.22311 .0060246 -.0049879 .18472 -4.6339 -1.1441)" gradientUnits="userSpaceOnUse"/>
<radialGradient id="radialGradient917" cx="676.62" cy="-100.37" r="14.947" gradientTransform="matrix(.0056997 .2131 -.19815 .0052999 -13.303 -46.861)" gradientUnits="userSpaceOnUse"/>
<linearGradient id="linearGradient895" x1="13.481" x2="89.94" y1="102.42" y2="124.94" gradientUnits="userSpaceOnUse"/>
<linearGradient id="linearGradient910" x1="97.368" x2="99.202" y1="101.32" y2="97.035" gradientUnits="userSpaceOnUse"/>
<radialGradient id="radialGradient949" cx="40.689" cy="64.73" r="19.887" gradientTransform="matrix(1 0 0 1.0799 0 -5.175)" gradientUnits="userSpaceOnUse"/>
<radialGradient id="radialGradient972" cx="40.739" cy="64.34" r="9.6008" gradientTransform="matrix(1.3511 .005936 -.0069664 1.5856 -14.029 -37.4)" gradientUnits="userSpaceOnUse"/>
</defs>
<rect transform="rotate(-8.9579)" x="13.481" y="16.167" width="91.78" height="115" rx="9.1177" ry="9.1177" fill="url(#linearGradient835)" style="paint-order:fill markers stroke"/>
<g>
<path d="m35.918 124.81c1.8858 1.3696 4.2963 2.0168 6.7907 1.6213l72.637-11.517c4.9889-0.79099 8.3684-5.4441 7.5774-10.433l-7.5764-47.786z" fill="#2498e7" style="paint-order:fill markers stroke"/>
<path transform="rotate(-8.9579)" d="m102.6 128.5c-1.648 1.648-3.9274 2.6646-6.453 2.6646h-73.545c-5.0512 0-9.1177-4.0665-9.1177-9.1177v-48.383z" fill="url(#linearGradient895)" style="paint-order:fill markers stroke"/>
<path d="m86.398 81.516-11.221 9.625-0.19531 0.4082 46.371 19.412 0.1875-0.05664c1.199-1.8281 1.7537-4.0865 1.3828-6.4258l-0.97266-6.1309-35.553-16.832z" fill="url(#linearGradient910)" opacity=".088"/>
</g>
<path d="m72.805 35.435h5.2383l0.33577 57.89-7.5888 0.26863z" fill="url(#linearGradient863)"/>
<path d="m10.818 96.818v3.2236h59.972v-4.8354z" fill="url(#linearGradient873)" opacity=".659"/>
<path d="m70.79 100.04-0.0025-1.9996-0.83256-4.9058 4.2417 0.33818 3.6412-0.14822 3.989 0.04749-1.3297 7.3131-10.59 6.1259z" fill="url(#radialGradient885)"/>
<path d="m70.253 31.305 7.9582-0.1679-0.16789 4.2981h-5.2383z" fill="url(#radialGradient907)" opacity=".63"/>
<path d="m10.818 100.04v-5.2671h-5.8027v5.4611z" fill="url(#radialGradient917)" opacity=".594"/>
<rect x="6.4975" y="31.394" width="68.383" height="66.673" rx="4.7488" ry="4.7488" fill="url(#linearGradient827)" style="paint-order:fill markers stroke"/>
<ellipse cx="40.563" cy="64.859" rx="10.031" ry="12.109" fill="url(#radialGradient972)" opacity=".126"/>
<path d="m41.06 46.851c-5.0206 0-9.2948 1.8222-12.275 5.036-2.9803 3.2137-4.6516 7.7839-4.6516 13.183 0 5.222 1.5465 9.6153 4.3667 12.706 2.8202 3.0906 6.9003 4.8339 11.748 4.8339 5.0226 0 9.3119-1.8427 12.308-5.0724 2.9964-3.2297 4.6881-7.8152 4.6881-13.216 0-5.2239-1.568-9.6066-4.4065-12.679-2.8384-3.0727-6.9321-4.7908-11.778-4.7908zm-0.74545 6.444c2.9241 0 5.3203 1.1673 7.0437 3.2104 1.7234 2.0431 2.7598 4.997 2.7598 8.5644 0 3.4415-0.93988 6.2221-2.5246 8.1238-1.5847 1.9017-3.8027 2.9686-6.5998 2.9686-2.9272 0-5.3052-1.1515-7.0106-3.1839-1.7054-2.0324-2.7267-4.9823-2.7267-8.5876 0-3.4795 0.92813-6.2628 2.4948-8.1536s3.763-2.9421 6.5633-2.9421z" fill="#fff"/>
<path d="m41.135 43.252c-6.031 0-11.166 2.1903-14.746 6.0508-3.5801 3.8605-5.5879 9.3503-5.5879 15.836 0 6.2729 1.8583 11.549 5.2461 15.262 3.3878 3.7125 8.2895 5.8066 14.113 5.8066 6.0334 0 11.186-2.2122 14.785-6.0918 3.5994-3.8796 5.6309-9.3892 5.6309-15.877 0-6.2752-1.8833-11.539-5.293-15.23-3.4097-3.6911-8.3272-5.7559-14.148-5.7559zm-0.074219 3.5996c4.846 1e-6 8.9389 1.7163 11.777 4.7891 2.8384 3.0727 4.4062 7.4558 4.4062 12.68 0 5.4009-1.6911 9.9871-4.6875 13.217-2.9964 3.2297-7.286 5.0723-12.309 5.0723-4.8481 0-8.9278-1.7434-11.748-4.834-2.8202-3.0906-4.3672-7.4831-4.3672-12.705 0-5.3991 1.672-9.9698 4.6523-13.184 2.9804-3.2137 7.2548-5.0352 12.275-5.0352z" fill="url(#radialGradient949)"/>
</svg>
